src/assets/filled/PenClose.svg

<svg width="24" height="24" viewBox="0 0 24 24"  xmlns="http://www.w3.org/2000/svg">
<path d="M16.0001 21.2902L6.6401 22.3902C5.9901 22.4702 5.4101 22.3702 4.9201 22.1302C4.4001 21.8702 3.9901 21.4702 3.7301 20.9402C3.4901 20.4502 3.4001 19.8802 3.4701 19.2402L4.3201 12.0902C4.4001 12.1202 4.4801 12.1502 4.5601 12.1702C5.1701 12.3902 5.8201 12.5002 6.5001 12.5002C7.9601 12.5002 9.3701 11.9702 10.4401 11.0202C10.9001 10.6202 11.3101 10.1402 11.6401 9.59016C11.9201 9.12016 12.1301 8.62016 12.2701 8.13016C12.3401 7.87016 12.4001 7.59016 12.4401 7.31016C12.4501 7.26016 12.4501 7.21016 12.4501 7.16016L12.6201 7.17016L18.7001 13.2602L18.9601 17.6802C19.2101 20.1602 18.3501 21.0202 16.0001 21.2902Z" />
<path d="M6.5 2C5.44 2 4.46 2.37 3.69 2.99C2.65 3.81 2 5.08 2 6.5C2 7.34 2.24 8.14 2.65 8.82C3.09 9.55 3.73 10.15 4.51 10.53C4.68 10.62 4.87 10.7 5.06 10.76C5.51 10.92 5.99 11 6.5 11C7.64 11 8.67 10.58 9.46 9.88C9.81 9.58 10.11 9.22 10.35 8.82C10.56 8.47 10.72 8.1 10.83 7.7C10.89 7.5 10.93 7.29 10.96 7.07C10.99 6.88 11 6.69 11 6.5C11 4.01 8.99 2 6.5 2ZM8.23 8.21C8.09 8.35 7.89 8.43 7.7 8.43C7.51 8.43 7.32 8.35 7.17 8.21L6.51 7.55L5.83 8.23C5.68 8.38 5.49 8.45 5.3 8.45C5.11 8.45 4.91 8.38 4.77 8.23C4.48 7.94 4.48 7.46 4.77 7.17L5.46 6.48L4.79 5.83C4.5 5.54 4.5 5.06 4.79 4.77C5.08 4.48 5.56 4.48 5.85 4.77L6.51 5.43L7.14 4.8C7.43 4.51 7.91 4.51 8.2 4.8C8.49 5.09 8.49 5.57 8.2 5.86L7.57 6.49L8.23 7.15C8.53 7.44 8.53 7.91 8.23 8.21Z" />
<path d="M22.0001 10.2799L19.9301 11.5899C19.5401 11.8299 19.0401 11.7799 18.7201 11.4499L14.2901 7.0199C13.9701 6.6999 13.9101 6.1999 14.1501 5.8099L15.4601 3.7399C16.2601 2.4799 17.8601 2.4199 19.0501 3.5899L22.1601 6.6999C23.2501 7.8099 23.1801 9.5299 22.0001 10.2799Z" />
</svg>

<?xml version="1.0" encoding="UTF-8"?>
<svg width="24" height="24" viewBox="0 0 24 24" xmlns="http://www.w3.org/2000/svg">
 <path d="m16 21.29-9.36 1.1c-0.65 0.08-1.23-0.02-1.72-0.26-0.52-0.26-0.93-0.66-1.19-1.19-0.24-0.49-0.33-1.06-0.26-1.7l0.85-7.15c0.08 0.03 0.16 0.06 0.24 0.08 0.61 0.22 1.26 0.33 1.94 0.33 1.46 0 2.87-0.53 3.94-1.48 0.46-0.4 0.87-0.88 1.2-1.43 0.28-0.47 0.49-0.97 0.63-1.46 0.07-0.26 0.13-0.54 0.17-0.82 0.01-0.05 0.01-0.1 0.01-0.15l0.17 0.01 6.08 6.09 0.26 4.42c0.25 2.48-0.61 3.34-2.96 3.61z"/>
 <path d="m6.5 2c-1.06 0-2.04 0.37-2.81 0.99-1.04 0.82-1.69 2.09-1.69 3.51 0 0.84 0.24 1.64 0.65 2.32 0.44 0.73 1.08 1.33 1.86 1.71 0.17 0.09 0.36 0.17 0.55 0.23 0.45 0.16 0.93 0.24 1.44 0.24 1.14 0 2.17-0.42 2.96-1.12 0.35-0.3 0.65-0.66 0.89-1.06 0.21-0.35 0.37-0.72 0.48-1.12 0.06-0.2 0.1-0.41 0.13-0.63 0.03-0.19 0.04-0.38 0.04-0.57 0-2.49-2.01-4.5-4.5-4.5zm1.73 6.21c-0.14 0.14-0.34 0.22-0.53 0.22s-0.38-0.08-0.53-0.22l-0.66-0.66-0.68 0.68c-0.15 0.15-0.34 0.22-0.53 0.22s-0.39-0.07-0.53-0.22c-0.29-0.29-0.29-0.77 0-1.06l0.69-0.69-0.67-0.65c-0.29-0.29-0.29-0.77 0-1.06s0.77-0.29 1.06 0l0.66 0.66 0.63-0.63c0.29-0.29 0.77-0.29 1.06 0s0.29 0.77 0 1.06l-0.63 0.63 0.66 0.66c0.3 0.29 0.3 0.76 0 1.06z"/>
 <path d="m22 10.28-2.07 1.31c-0.39 0.24-0.89 0.19-1.21-0.14l-4.43-4.43c-0.32-0.32-0.38-0.82-0.14-1.21l1.31-2.07c0.8-1.26 2.4-1.32 3.59-0.15l3.11 3.11c1.09 1.11 1.02 2.83-0.16 3.58z"/>
</svg>
